X:1
T:Christmas, Glad Christmas
T:Christmas, Glad Christmas
T:Katherine McK. Irvine
T:Katherine McK. Irvine, 1901
T:Public Domain Courtesy of the Cyber Hymnal™
C:Katherine McK. Irvine
Z:Public Domain
Z:Courtesy of the Cyber Hymnal™
%%score ( 1 2 ) 3 4
L:1/8
Q:1/4=80
M:3/8
K:Ab
V:1 treble 
V:2 treble 
V:3 treble 
V:4 bass 
V:1
 c"^Solo"AA | AFF | EAc | B2 B | cAA | AFF/F/ | EcB | A2 z ||"^Duet or Chorus" [GB][GB][GB] | %9
w: 1.~Christ- mas, glad|Christ- mas, Is|with us once|more, And|all the rich|bless- ings From the|Christ we a-|dore.|So lit- tle|
w: 2.~Good will to|all let Our|ban- ners now|show, And|high- er and|grand- er May our|an- thems still|grow.|So lit- tle|
w: 3.~Wave then our|pen- nant O’er|all the broad|earth, Let|voic- es of|child- ren Still pro-|claim the great|worth.|So lit- tle|
 [Ac][Ac][Ac] | [Bd][Bd][Ac] | [GB]2 z | [Ac][EB][EA] | [DF][DB][Fd] | [Ac][Bd][GB] | A3 |] %16
w: child- ren sing|out the glad|cry,|Peace is our|watch- word, ’Twill|reach God on|high.|
w: child- ren sing|out the glad|cry,|Good will our|an- them, ’Twill|reach God on|high.|
w: child- ren sing|out the glad|cry,|Sweet al- le-|lu- ia, ’Twill|reach God on|high.|
V:2
 x3 | x3 | x3 | x3 | x3 | x3 | x3 | x3 || x3 | x3 | x3 | x3 | x3 | x3 | x3 | A3 |] %16
V:3
 [EAc][EA][EA] | [FA][DF][DF] | [CE][CEA][EAc] | [EGB]2 [EGB] | [EAc][EA][EA] | [FA][DF][DF] | %6
 [CE][Ec][DB] | [CA]2 z || [GB]/e/[GB]/e/[GB]/e/ | [Ac]/e/[Ac]/e/[Ac]/e/ | [Bd]/e/[Bd]/e/[Ac]/e/ | %11
 ([GB]/e/=d/e/_d/B/) | [EAc][EGB][EA] | [DF][DB][Fd] | [EAc][EBd][DGB] | [CA]3 |] %16
V:4
 [A,,A,][C,A,][C,A,] | [D,A,][D,A,][D,A,] | [A,,A,]2 [A,,A,] | [E,,E,]2 [E,,E,] | %4
 [A,,A,][C,A,][C,A,] | [D,A,][C,E,]/G,/[C,E,]/G,/ | E,2 [E,,E,] | [A,,E,]2 z || E,,[E,B,][E,B,] | %9
 A,,[E,A,][E,A,] | [E,G,][E,G,][E,A,] | [E,B,]2 z | A,,B,,C, | D,2 [B,,B,] | [E,,E,]G,,[E,,E,] | %15
 [A,,E,]3 |] %16

